X: 1
T: Winding Road, The
M: 6/8
L: 1/8
R: jig
K: Gmaj
FE | DBB Dcc| DBB c2e| dBG FGA| BGB AFE|
DBB Dcc| DBB c2e| dBG FGA | BGF G2:|
Bd | efg efg| fed cAF| d2 g gfg| afd cAF|
DBB Dcc| DBB c2e| dBG FGA| BGF G2:|
